!!!!SEGMENT: pl-sa--69-a-ii-9_anonim--o-ktory-jestels-w-niebie.krn
!!!cenid: 17xx:1756
!!!COM: Anonim
!!!COM-rismID: pe30004985
!!!CDT:
!!!CNT:
!!!OTL: O który jesteś w niebie
!!!PDT:
!!!AGN: Sacred
!!!SMS-siglum: PL-SA
!!!SMS-shelfmark: 69/A II 9
!!!SMS-shelfwork: W
!!!SMS-variant: Partytura PL-SA 69/A II 9:1-2
!!!SMS-altvar: Canto PL-SA 69/A II 9:4,8; Alto PL-SA 69/A II 9:6
!!!NIFC-rismSourceID: 1001091849
!!!NIFC-rismChildID: 1001091849
!!!NIFC-islandoraID: none
!!!URL-pdf-islandora:
!!!URL-scan: https://bc.bdsandomierz.pl/dlibra/publication/1340/edition/1308/content @EN{Scan in the Sandomierz Diocese Digital Library} @PL{Skany w portalu Cyfrowa Biblioteka Diecezjalna w Sandomierzu}
!!!IIIF:
!!!ONB-nifc: UWAGA: na podstawie partytury str. 1-2
!!!OMD:
!!!AIN: 1 alto 1 organ 1 soprn
!!!key: C
**kern	**kern	**kern	**text	**dynam	**kern	**text	**dynam
*part3	*part3	*part2	*part2	*part2	*part1	*part1	*part1
*staff4	*staff3	*staff2	*staff2	*	*staff1	*staff1	*
*I"[Organo]	*	*I"[Alto]	*	*	*I"[Canto]	*	*
*I'keyb	*	*I'A	*	*	*I'S	*	*
*Iorgan	*	*Ialto	*	*	*Isoprn	*	*
*ICklav	*	*ICvox	*	*	*ICvox	*	*
*clefF4	*clefG2	*clefC3	*	*	*clefC1	*	*
*k[]	*k[]	*k[]	*	*	*k[]	*	*
*C:	*C:	*C:	*	*	*C:	*	*
*M4/4	*M4/4	*M4/4	*	*	*M4/4	*	*
*met(c)	*met(c)	*met(c)	*	*	*met(c)	*	*
*all\right	*all\right	*all\right	*	*	*all\right	*	*
!	!	!	!	!LO:DY:b:rj	!LO:TX:a:t=Wolno. Spiewnie	!	!LO:DY:b:rj
4r	4r	8c\L	O	p	8e/L	O	p
.	.	8d\J	.	.	8f/J	.	.
=1	=1	=1	=1	=1	=1	=1	=1
2C/ 2G	8r	4.e\	któ-	.	4.g\	któ-	.
.	8g/L	.	.	.	.	.	.
.	8c/ 8e	.	.	.	.	.	.
.	8g/J	8e\	-ry	.	8g\	-ry	.
4C/	8r	8e\L	je-	.	8g\L	je-	.
.	8a/ 8cc	8a\J	.	.	8cc\J	.	.
4F\	8g/L 8b	8g\L	-steś	.	8b\L	-steś	.
.	8f/J 8a	8f\J	.	.	8a\J	.	.
=2	=2	=2	=2	=2	=2	=2	=2
4c\	8f/L 8a	8f\L	w_Nie-	.	8a\L	w_Nie-	.
.	8e/J 8g	8e\J	.	.	8g\J	.	.
*	*	*2\right	*	*	*2\right	*	*
2C/	2e/ 2g	2e\	-bie	.	2g\	-bie	.
!	!	!	!	!LO:DY:b:rj	!	!	!LO:DY:b:rj
4C/ 4G	8e/L 8g 8cc	8e\	Bo-	f	8cc\	Bo-	f
.	8g/J 8ee	8g\	-że	.	8ee\	-że	.
=3	=3	=3	=3	=3	=3	=3	=3
4A\	8g/L 8ee	8g\L	Oj-	.	8ee\L	Oj-	.
.	8f/J 8dd	8f\J	.	.	8dd\J	.	.
4F\	8a/L 8ff	8a\L	-cze	.	8ff\L	-cze	.
.	8f/J 8dd	8f\J	.	.	8dd\J	.	.
4G\	4e/ 4g 4cc	(4e\	pa-	.	(4cc\	Pa-	.
4GG/	4d/ 4f 4g 4b	4d\)	.	.	4b\)	.	.
=4	=4	=4	=4	=4	=4	=4	=4
8C\L	2e/ 2g 2cc	2e\	-nie	.	2cc\	-nie	.
!LO:TX:a:t=a	!	!	!	!	!	!	!
8A\	.	.	.	.	.	.	.
8E\ 8G	.	.	.	.	.	.	.
8E\J	.	.	.	.	.	.	.
!	!	!	!	!	!	!	!LO:DY:b
4C/	4r	4r	.	.	4r	.	p
!	!	!	!	!LO:DY:b:rj	!	!	!
4r	8c/L 8e	8c\L	Niech	p	8e/L	Niech	.
.	8d/J 8f	8d\J	.	.	8f/J	.	.
!!LO:LB:g=original
=5	=5	=5	=5	=5	=5	=5	=5
2C/ 2G	8r	4e\	świat	.	4g\	świat	.
.	8g/L	.	.	.	.	.	.
.	8c/ 8e	4e\	twe	.	4g\	twe	.
.	8g/J	.	.	.	.	.	.
4C/	8r	8e\L	I-	.	8g\L	I-	.
.	8a/ 8cc	8a\J	.	.	8cc\J	.	.
4F\	8g/L 8b	(8g\	-mię	.	(8b\	-mię	.
.	8f/J 8a	8f\)	.	.	8a\)	.	.
=6	=6	=6	=6	=6	=6	=6	=6
4c\	8f/L 8a	8f\L	świę-	.	8a\L	świę-	.
.	8e/J 8g	8e\J	.	.	8g\J	.	.
4C/	4e/ 4g	4e\	-ci	.	4g\	-ci	.
!	!	!	!	!LO:DY:b:rj	!	!	!LO:DY:b:rj
4C/ 4G	4.e/ 4.cc	4.e\	zna	f	4.cc\	zna	f
4c\	.	.	.	.	.	.	.
.	8e/ 8g	8e\	twe	.	8g\	twe	.
=7	=7	=7	=7	=7	=7	=7	=7
2C/	4a/ 4ff	(4f\	pa-	.	(4a\	pa-	.
.	4g/ 4ee	4e\)	.	.	4g\)	.	.
*2\right	*	*	*	*	*	*	*
2c\	4f/ 4dd	(4d\	-no-	.	(4f/	-no-	.
.	4e/ 4cc	4c\)	.	.	4e/)	.	.
=8	=8	=8	=8	=8	=8	=8	=8
!LO:TX:t=P:problem=mixed beam	!	!	!	!	!	!	!
8G\L	8e/L 8cc	8c\L	-wa-	.	8e/L	-wa-	.
8GG/	8d/J 8b	8B\J	.	.	8d/J	.	.
8BB/	4d/ 4b	4B\	-nie	.	4d/	-nie	.
8D/J	.	.	.	.	.	.	.
16C/LL	4r	4r	.	.	4r	.	.
16D/	.	.	.	.	.	.	.
16E/	.	.	.	.	.	.	.
16F#X/JJ	.	.	.	.	.	.	.
!	!	!	!	!LO:DY:b:rj	!	!	!LO:DY:b:rj
4G\	8d/L	8d\L	niech	ff	8d/L	niech	ff
.	8g/J	8g\J	.	.	8g/J	.	.
=9	=9	=9	=9	=9	=9	=9	=9
*tremolo	*	*	*	*	*	*	*
!LO:TX:a:t=....	!	!	!	!	!	!	!
8D'\L	8g/L 8b	8g\L	się	.	8b\L	się	.
8D'\	8f#X/J 8a	8f#X\J	.	.	8a\J	.	.
8D'\	8f#/L 8a	8f#\L	twa	.	8a\L	twa	.
8D'\J	8a/J 8cc	8a\J	.	.	8cc\J	.	.
!LO:TX:a:t=....	!	!	!	!	!	!	!
8D'\L	8a/L 8cc	8a\L	wo-	.	8cc\L	wo-	.
8D'\	8g/J 8b	8g\J	.	.	8b\J	.	.
8D'\	8g/L 8b	8g\L	-la	.	8b\L	-la	.
8D'\J	8b/J 8dd	8b\J	.	.	8dd\J	.	.
*Xtremolo	*	*	*	*	*	*	*
!!LO:PB:g=original
=10	=10	=10	=10	=10	=10	=10	=10
4C/	8b/L 8dd	8b\L	dzie-	.	8dd\L	dzie-	.
.	8a/J 8cc	8a\J	.	.	8cc\J	.	.
2AA/ 2E 2A	2a/ 2cc 2ee	2cc\	-je	.	2ee\	-je	.
8D\	8f#X/L 8a	(8f#X\	w_Nie-	.	(8a\	w_Nie-	.
8D\	8a/J 8cc	8a\)	.	.	8cc\)	.	.
=11	=11	=11	=11	=11	=11	=11	=11
4D\	8g/L 8b	8g\L	-bie	.	8b\L	-bie	.
.	8b/J 8dd 8gg	8b\J	.	.	8dd\J	.	.
4A\	4cc/ 4ee	4cc\	i	.	16ee\LL	i	.
.	.	.	.	.	16cc\J	.	.
.	.	.	.	.	8a\J	.	.
4G\	4d/ 4g 4b	(4g\	na	.	(4b\	na	.
4D/ 4F#X	4c/ 4d 4a	4f#X\)	.	.	4a\)	.	.
=12	=12	=12	=12	=12	=12	=12	=12
!LO:TX:t=P:problem=mixed beam	!	!	!	!	!	!	!
8G\L	2B/ 2d 2g	4g\	zie-	.	4g\	zie-	.
8GG/	.	.	.	.	.	.	.
8G\	.	4g\	-mi	.	4g\	-mi	.
8F#X\J	.	.	.	.	.	.	.
4GG/ 4Fn	4d/ 4f 4g 4b	4r	.	.	4r	.	.
!	!	!	!	!LO:DY:b:rj	!	!	!LO:DY:b:rj
4r	4r	8c\L	o-	p	8e/L	o-	p
.	.	8d\J	.	.	8fn/J	.	.
=13	=13	=13	=13	=13	=13	=13	=13
2C/ 2G	8r	4.e\	-patrz	.	4.g\	-patrz	.
.	8g/L	.	.	.	.	.	.
.	8c/ 8e	.	.	.	.	.	.
.	8g/J	8e\	nas	.	8g\	nas	.
4C/	8r	8e\L	dzi-	.	8g\L	dzi-	.
.	8a/ 8cc	8a\J	.	.	8cc\J	.	.
4F\	8g/L 8b	8g\L	-siaj	.	8b\L	-siaj	.
.	8f/J 8a	8f\J	.	.	8a\J	.	.
=14	=14	=14	=14	=14	=14	=14	=14
4c\	8f/L 8a	8f\L	chle-	.	8a\L	chle-	.
.	8e/J 8g	8e\J	.	.	8g\J	.	.
2C/	2e/ 2g	2e\	-bem	.	2g\	-bem	.
!	!	!	!	!LO:DY:b:rj	!	!	!LO:DY:b:rj
4C/ 4G	8e/L 8cc	8e\	i	f	8cc\	i	f
.	8g/J 8ee	8g\	d-	.	8ee\	da-	.
=15	=15	=15	=15	=15	=15	=15	=15
4A\	8g/L 8ee	8g\L	-ra-	.	8ee\L	-ra-	.
.	8f/J 8dd	8f\J	.	.	8dd\J	.	.
4F\	8a/L 8ff	8a\L	-mi	.	8ff\L	-mi	.
.	8f/J 8dd	8f\J	.	.	8dd\J	.	.
4G\	4e/ 4g 4cc	(4e\	Twe-	.	(4cc\	Twe-	.
4GG/	4d/ 4f 4g 4b	4d\)	.	.	4b\)	.	.
=16	=16	=16	=16	=16	=16	=16	=16
8C\L	2e/ 2g 2cc	2e\	-mi	.	2cc\	-mi	.
8A\	.	.	.	.	.	.	.
8G\	.	.	.	.	.	.	.
8E\J	.	.	.	.	.	.	.
4C/	4r	4r	.	.	4r	.	.
!	!	!	!	!LO:DY:b:rj	!	!	!LO:DY:b:rj
4r	8c/L 8e	8c\L	kto-	p	8e\L	kto-	p
.	8d/J 8f	8d\J	.	.	8f\J	.	.
=17	=17	=17	=17	=17	=17	=17	=17
2C/ 2G	8r	4e\	-re	.	4g\	-re	.
.	8g/L	.	.	.	.	.	.
.	8c/ 8e	4e\	po-	.	4g\	po-	.
.	8g/J	.	.	.	.	.	.
4C/	8r	8e\L	-wsze-	.	8g\L	-wsze-	.
.	8a/ 8cc	8a\J	.	.	8cc\J	.	.
4F\	8g/L 8b	(8g\	-dni	.	(8b\	-dni	.
.	8f/J 8a	8f\)	.	.	8a\)	.	.
=18	=18	=18	=18	=18	=18	=18	=18
4c\	8f/L 8a	8f\L	z_rąk	.	8a\L	z_rąk	.
.	8e/J 8g	8e\J	.	.	8g\J	.	.
4C/	4e/ 4g	4e\	twych	.	4g\	twych	.
!	!	!	!	!LO:DY:b:rj	!	!	!LO:DY:b:rj
4C/ 4G	4.e/ 4.cc	4.e\	god-	f	4.cc\	hoj-	f
4c\	.	.	.	.	.	.	.
.	8e/ 8g	8e\	-nie	.	8g\	-nie	.
=19	=19	=19	=19	=19	=19	=19	=19
2C/	4a/ 4ff	(4f\	o-	.	(4a\	od-	.
.	4g/ 4ee	4e\)	.	.	4g\)	.	.
2c\	4f/ 4dd	(4d\	-bie-	.	(4f\	-bie-	.
.	4e/ 4cc	4c\)	.	.	4e\)	.	.
=20	=20	=20	=20	=20	=20	=20	=20
!LO:TX:t=P:problem=mixed beam	!	!	!	!	!	!	!
8G\L	8e/L 8cc	8c\L	-ra-	.	8e/L	-ra-	.
8GG/	8d/J 8b	8B\J	.	.	8d/J	.	.
8BB/	4d/ 4b	4B\	-my	.	4d/	-my	.
8D/J	.	.	.	.	.	.	.
16C\LL	4r	4r	.	.	4r	.	.
16D\	.	.	.	.	.	.	.
16E\	.	.	.	.	.	.	.
16F#X\JJ	.	.	.	.	.	.	.
4GG/ 4G	8f/L	8d\L	a	.	8d/L	a	.
.	8b/J	8g\J	.	.	8g/J	.	.
!!LO:LB:g=original
=21	=21	=21	=21	=21	=21	=21	=21
*tremolo	*	*	*	*	*	*	*
!LO:TX:a:t=....	!	!	!	!	!	!	!
8D'\L	8g/L 8b	8g\L	ja-	.	8b\L	ja-	.
8D'\	8f#X/J 8a	8f#X\J	.	.	8a\J	.	.
8D'\	8f#/L 8a	8f#\L	-ko	.	8a\L	-ko	.
8D'\J	8a/J 8cc	8a\J	.	.	8cc\J	.	.
*Xtremolo	*	*	*	*	*	*	*
!LO:TX:a:t=....	!	!	!	!	!	!	!
2D'\	8a/L 8cc	8a\L	wi-	.	8cc\L	wi-	.
.	8g/J 8b	8g\J	.	.	8b\J	.	.
.	8g/L 8b	8g\L	-no-	.	8b\L	-no-	.
.	8b/J 8dd	8b\J	.	.	8dd\J	.	.
=22	=22	=22	=22	=22	=22	=22	=22
4CC/ 4C	8b/L 8dd	8b\L	-waj-	.	8dd\L	-waj-	.
.	8a/J 8cc	8a\J	.	.	8cc\J	.	.
2AA/ 2E 2G	2a/ 2cc 2ee	2cc\	-com	.	2ee\	-com	.
8D\	8f#X/L 8a	(8f#X\	na-	.	(8a\	na-	.
!	!	!	!	!	!LO:TX:a:t=c	!	!
8D\	8a/J 8cc	8a\)	.	.	8cc\)	-[[szym]]-	.
=23	=23	=23	=23	=23	=23	=23	=23
4D\	8g/L 8b	8g\L	-szym	.	8b\L	-szym	.
.	8b/J 8gg	8b\J	.	.	8dd\J	.	.
4A\	4cc/ 4ee	4cc\	prze-	.	16ee\LL	prze-	.
.	.	.	.	.	16cc\J	.	.
.	.	.	.	.	8a\J	.	.
4G\	4d/ 4g 4b	(4g\	-ba-	.	(4b\	-ba-	.
4D\ 4F#X	4c/ 4d 4a	4f#X\)	.	.	4a\)	.	.
=24	=24	=24	=24	=24	=24	=24	=24
!LO:TX:t=P:problem=mixed beam	!	!	!	!	!	!	!
8G\L	2B/ 2d 2g	4g\	-cza-	.	4g\	-cza-	.
8GG/	.	.	.	.	.	.	.
8G\	.	4g\	-my	.	4g\	-my	.
8F#X\J	.	.	.	.	.	.	.
4GG/ 4Fn	4d/ 4f 4g 4b	4r	.	.	4r	.	.
!	!	!	!	!LO:DY:b:rj	!	!	!LO:DY:b:rj
4r	4r	8c\L	tak	p	8e\L	tak	p
.	.	8d\J	.	.	8f\J	.	.
=25	=25	=25	=25	=25	=25	=25	=25
4C\	8r	4e\	tez	.	4g\	też	.
.	8G/L	.	.	.	.	.	.
4r	8c/ 8e	4e\	racz	.	4g\	nie	.
.	8G/J	.	.	.	.	.	.
4A\	8r	8e\L	nam	.	8g\L	nam	.
.	8c/L	8a\J	.	.	8cc\J	.	.
4r	8A/ 8f	8g\L	win	.	8b\L	win	.
.	8c/J	8f\J	.	.	8a\J	.	.
=26	=26	=26	=26	=26	=26	=26	=26
4c\	8f/L 8a	8f\L	na-	.	8a\L	na-	.
.	8e/J 8g	8e\J	.	.	8g\J	.	.
2C/	2e/ 2g	2e\	-szych	.	2g/	-szych	.
4c\	8e/L 8cc	8e\	prze-	.	8cc\	prze-	.
.	8e/J 8g	8e\	-ba-	.	8g\	-ba-	.
=27	=27	=27	=27	=27	=27	=27	=27
2F\	2d/ 2f 2a	8f\L	-cze-	.	8a\L	-cze-	.
.	.	8d\J	.	.	8b\J	.	.
.	.	8e\L	-nie	.	8cc\L	-nie	.
.	.	8f\J	.	.	8dd\J	.	.
4G\	4e/ 4g 4cc	(4e\	spr(a)-	.	(4cc\	spra-	.
4GG/	4d/ 4f 4g 4b	4d\)	.	.	4b\)	.	.
=28	=28	=28	=28	=28	=28	=28	=28
8C\L	2e/ 2g 2cc	2e\	-wić	.	2cc\	-wić	.
8D\	.	.	.	.	.	.	.
8E\	.	.	.	.	.	.	.
8F\J	.	.	.	.	.	.	.
8G\L	4r	4r	.	.	4r	.	.
8E\J	.	.	.	.	.	.	.
!	!	!	!	!LO:DY:b:rj	!	!	!LO:DY:b:rj
4C/	4r	8c\L	u-	p	8e/L	u-	p
.	.	8d\J	.	.	8f/J	.	.
=29	=29	=29	=29	=29	=29	=29	=29
4C/	8r	4e\	-strzedz	.	4g\	-strzedz	.
.	8G/L	.	.	.	.	.	.
4r	8c/ 8e	4e\	wszel-	.	4g\	wszel-	.
.	8G/J	.	.	.	.	.	.
4C/	8e/L 8g	8e\L	-kiej	.	8g\L	-kiej	.
.	8a/J 8cc	8a\J	.	.	8cc\J	.	.
4F\	8g/L 8b	8g\	po-	.	8b\	po-	.
.	8f/J 8a	8f\	.	.	8a\	.	.
=30	=30	=30	=30	=30	=30	=30	=30
4c\	8f/L 8a	8f\L	-ku-	.	8a\L	-ku-	.
.	8e/J 8g	8e\J	.	.	8g\J	.	.
2C/	2e/ 2g	2e\	-sy	.	2g\	-sy	.
!	!	!	!	!LO:DY:b:rj	!	!	!LO:DY:b:rj
4c\	8e/L 8cc	8e\	i	f	8cc\	i	f
.	8e/J 8g	8e\	od	.	8g\	od	.
=31	=31	=31	=31	=31	=31	=31	=31
2F\	2d/ 2f 2a	8f\L	złe-	.	8a\L	złe-	.
.	.	8d\J	.	.	8b\J	.	.
.	.	8e\L	-go	.	8cc\L	-go	.
.	.	8f\J	.	.	8dd\J	.	.
4G\	4e/ 4g 4cc	(4e\	zbaa-	.	(4cc\	zba-	.
4GG/	4d/ 4f 4g 4b	4d\)	.	.	4b\)	.	.
=32	=32	=32	=32	=32	=32	=32	=32
8C\L	2e;/ 2g 2cc	2e;\	-wic	.	2cc;\	-wić	.
8c\	.	.	.	.	.	.	.
8G\	.	.	.	.	.	.	.
8E\J	.	.	.	.	.	.	.
4C;/	4r	4r	.	.	4re	.	.
4r	4r	4r	.	.	4r	.	.
==	==	==	==	==	==	==	==
*-	*-	*-	*-	*-	*-	*-	*-
!!!system-decoration: [(s1,s2)][(s3,s4)]
!!!ENC: Andrzej Gręziak
!!!END: 2021-01-27
!!!ENC: Marta Chmielewska
!!!END: 2022-01-11
!!!YEC: Copyright 2022 Narodowy Instytut Fryderyka Chopina (https://polishscores.org)
!!!YEM: License CC-BY-4.0 (https://creativecommons.org/licenses/by/4.0)
